X: 7
T:Room For the Cuckoo, Wheatley
M:6/8
L:1/8
A:Wheatley
P:A(AB)4
K:D
P:A
|:A2F EDD|FGF EDD|A2F EDD|FGB A3:|
P:B
|:BAA BGA|BGB A3 |FGA d2B|AGB A3 |
  BAA BGA|BGB A3 |FGF E2D|E2A D3:|
